ZKTeco/img/bxl-instagram.svg.svg

<svg width="24" height="24" viewBox="0 0 24 24" fill="none" xmlns="http://www.w3.org/2000/svg">
<path d="M11.999 7.37695C9.44498 7.37695 7.37598 9.44695 7.37598 12C7.37598 14.554 9.44498 16.624 11.999 16.624C14.551 16.624 16.622 14.554 16.622 12C16.622 9.44695 14.551 7.37695 11.999 7.37695ZM11.999 15.004C10.34 15.004 8.99498 13.659 8.99498 12.001C8.99498 10.342 10.34 8.99795 11.999 8.99795C13.658 8.99795 15.001 10.342 15.001 12.001C15.001 13.659 13.658 15.004 11.999 15.004Z" fill="white"/>
<path d="M16.806 8.28491C17.4014 8.28491 17.884 7.80227 17.884 7.20691C17.884 6.61154 17.4014 6.12891 16.806 6.12891C16.2107 6.12891 15.728 6.61154 15.728 7.20691C15.728 7.80227 16.2107 8.28491 16.806 8.28491Z" fill="white"/>
<path d="M20.533 6.11088C20.064 4.90188 19.109 3.94588 17.9 3.47888C17.201 3.21588 16.462 3.07488 15.714 3.05888C14.751 3.01688 14.446 3.00488 12.004 3.00488C9.56201 3.00488 9.24901 3.00488 8.29401 3.05888C7.54801 3.07388 6.80901 3.21488 6.11001 3.47888C4.90001 3.94588 3.94501 4.90188 3.47701 6.11088C3.21401 6.81088 3.07301 7.54888 3.05801 8.29688C3.01501 9.25888 3.00201 9.56388 3.00201 12.0069C3.00201 14.4489 3.00201 14.7599 3.05801 15.7169C3.07301 16.4649 3.21401 17.2029 3.47701 17.9039C3.94601 19.1119 4.90101 20.0679 6.11101 20.5359C6.80701 20.8079 7.54601 20.9619 8.29601 20.9859C9.25901 21.0279 9.56401 21.0409 12.006 21.0409C14.448 21.0409 14.761 21.0409 15.716 20.9859C16.463 20.9709 17.202 20.8289 17.902 20.5669C19.111 20.0979 20.066 19.1429 20.535 17.9339C20.798 17.2339 20.939 16.4959 20.954 15.7479C20.997 14.7859 21.01 14.4809 21.01 12.0379C21.01 9.59488 21.01 9.28488 20.954 8.32788C20.941 7.56988 20.801 6.81888 20.533 6.11088ZM19.315 15.6429C19.308 16.2189 19.204 16.7899 19.004 17.3309C18.699 18.1179 18.078 18.7399 17.292 19.0419C16.757 19.2409 16.193 19.3449 15.622 19.3529C14.672 19.3969 14.404 19.4079 11.968 19.4079C9.53001 19.4079 9.28101 19.4079 8.31301 19.3529C7.74401 19.3459 7.17801 19.2409 6.64401 19.0419C5.85501 18.7409 5.23001 18.1189 4.92501 17.3309C4.72901 16.7969 4.62301 16.2319 4.61401 15.6619C4.57101 14.7119 4.56101 14.4439 4.56101 12.0079C4.56101 9.57088 4.56101 9.32188 4.61401 8.35288C4.62101 7.77688 4.72501 7.20688 4.92501 6.66588C5.23001 5.87688 5.85501 5.25588 6.64401 4.95388C7.17801 4.75588 7.74401 4.65088 8.31301 4.64288C9.26401 4.59988 9.53101 4.58788 11.968 4.58788C14.405 4.58788 14.655 4.58788 15.622 4.64288C16.193 4.64988 16.757 4.75488 17.292 4.95388C18.078 5.25688 18.699 5.87888 19.004 6.66588C19.2 7.19988 19.306 7.76488 19.315 8.33488C19.358 9.28588 19.369 9.55288 19.369 11.9899C19.369 14.4259 19.369 14.6879 19.326 15.6439H19.315V15.6429Z" fill="white"/>
</svg>

<svg width="24" height="24" fill="none" xmlns="http://www.w3.org/2000/svg"><path d="M11.999 7.377a4.623 4.623 0 100 9.248 4.623 4.623 0 000-9.248zm0 7.627a3.004 3.004 0 110-6.008 3.004 3.004 0 010 6.008zm4.807-6.719a1.078 1.078 0 100-2.156 1.078 1.078 0 000 2.156z" fill="#fff"/><path d="M20.533 6.11A4.605 4.605 0 0017.9 3.48a6.606 6.606 0 00-2.186-.42c-.963-.042-1.268-.054-3.71-.054s-2.755 0-3.71.054a6.554 6.554 0 00-2.184.42 4.6 4.6 0 00-2.633 2.63 6.585 6.585 0 00-.419 2.186c-.043.962-.056 1.267-.056 3.71 0 2.442 0 2.753.056 3.71.015.748.156 1.486.419 2.187a4.61 4.61 0 002.634 2.632 6.584 6.584 0 002.185.45c.963.042 1.268.055 3.71.055s2.755 0 3.71-.055a6.615 6.615 0 002.186-.42 4.613 4.613 0 002.633-2.632c.263-.7.404-1.438.419-2.186.043-.962.056-1.267.056-3.71s0-2.753-.056-3.71a6.581 6.581 0 00-.421-2.217zm-1.218 9.533a5.043 5.043 0 01-.311 1.688 2.987 2.987 0 01-1.712 1.71 4.985 4.985 0 01-1.67.312c-.95.044-1.218.055-3.654.055-2.438 0-2.687 0-3.655-.055a4.96 4.96 0 01-1.669-.311 2.985 2.985 0 01-1.719-1.711 5.08 5.08 0 01-.311-1.67c-.043-.95-.053-1.217-.053-3.653 0-2.437 0-2.686.053-3.655a5.038 5.038 0 01.311-1.687c.305-.79.93-1.41 1.719-1.712a5.01 5.01 0 011.669-.311c.951-.043 1.218-.055 3.655-.055s2.687 0 3.654.055a4.96 4.96 0 011.67.31 2.991 2.991 0 011.712 1.713 5.08 5.08 0 01.311 1.669c.043.95.054 1.218.054 3.655 0 2.436 0 2.698-.043 3.654h-.011v-.001z" fill="#fff"/></svg>
